X:154
T:Hommage \`a Guy Thomas
S:Gaston Nolet SPTDQ 2011
Z:robin.beech@mcgill.ca
C:Philippe Bruneau
M:3/2
L:1/16
K:D
FAAA ABAF EADA | FAAA ABAF dBAG | FAAA ABAF EADA | FAAA ABAF dBAG ::
Adfd gfed baAa | Adfd gfgb abaf | Adfd gfed BdAd | fAdf gfgb abaf ::
FAAA ABAF EADA | FAAA ABAF dBAG | FAAA ABAF EADA | FAAA ABAF dBAG ::
Adfd gfed baAa | Adfd gfgb abaf | Adfd gfed BdAd | fAdf gfgb abaf ::
e2ce Acea fadf | e2ce AceA BdAd | e2ce Acea fadf |1 e2ce AceA dfaf :|2 e2ce Acec d4 |:
fddd dedc BAFA | fddd cdef gfed | fddd dedc BAFA | fddd cdef gfed :|

